src/lib/packages/icons/src/assets/filled/chart-pyramid.svg

<svg width="24" height="24" viewBox="0 0 24 24" fill="none" xmlns="http://www.w3.org/2000/svg">
<path d="M18.552 14.75H5.44802C5.22002 14.75 5.07502 14.505 5.18502 14.305L6.78402 11.405C6.83702 11.309 6.93702 11.25 7.04702 11.25H16.953C17.062 11.25 17.163 11.309 17.216 11.405L18.815 14.305C18.925 14.505 18.78 14.75 18.552 14.75ZM13.64 4.96994C12.93 3.67994 11.07 3.67994 10.36 4.96994L7.95699 9.30502C7.84599 9.50502 7.99102 9.74997 8.21902 9.74997H15.7801C16.0091 9.74997 16.153 9.50502 16.042 9.30502L13.64 4.96994ZM20.82 17.92L19.986 16.405C19.933 16.309 19.833 16.25 19.723 16.25H4.27804C4.16904 16.25 4.06804 16.309 4.01504 16.405L3.18001 17.92C2.66001 18.85 3.33005 20 4.40005 20H19.6C20.67 20 21.34 18.85 20.82 17.92Z" fill="currentColor"/>
</svg>

<svg xmlns="http://www.w3.org/2000/svg" width="24" height="24" fill="none"><path fill="currentColor" d="M18.552 14.75H5.448a.3.3 0 0 1-.263-.445l1.599-2.9a.3.3 0 0 1 .263-.155h9.906a.3.3 0 0 1 .263.155l1.599 2.9a.3.3 0 0 1-.263.445ZM13.64 4.97c-.71-1.29-2.57-1.29-3.28 0L7.957 9.305a.3.3 0 0 0 .262.445h7.561a.3.3 0 0 0 .262-.445L13.64 4.97Zm7.18 12.95-.834-1.515a.3.3 0 0 0-.263-.155H4.278a.3.3 0 0 0-.263.155L3.18 17.92c-.52.93.15 2.08 1.22 2.08h15.2c1.07 0 1.74-1.15 1.22-2.08Z"/></svg>
